{
  "compressionlevel": -1,
  "height": 18,
  "width": 32,
  "infinite": false,
  "orientation": "orthogonal",
  "renderorder": "right-down",
  "tiledversion": "1.10.2",
  "tileheight": 32,
  "tilewidth": 32,
  "type": "map",
  "version": "1.10",
  "nextlayerid": 6,
  "nextobjectid": 34,
  "properties": [
    {
      "name": "script",
      "type": "string",
      "value": "script.js"
    },
    {
      "name": "mapName",
      "type": "string",
      "value": "FD Office"
    },
    {
      "name": "mapDescription",
      "type": "string",
      "value": "Stage 0 floor: sit at a desk, walk, close at the Door."
    }
  ],
  "tilesets": [
    {
      "columns": 8,
      "firstgid": 1,
      "image": "office-tiles.png",
      "imageheight": 64,
      "imagewidth": 256,
      "margin": 0,
      "name": "office-tiles",
      "spacing": 0,
      "tilecount": 16,
      "tileheight": 32,
      "tilewidth": 32,
      "tiles": [
        {
          "id": 3,
          "properties": [
            {
              "name": "collides",
              "type": "bool",
              "value": true
            }
          ]
        },
        {
          "id": 4,
          "properties": [
            {
              "name": "collides",
              "type": "bool",
              "value": true
            }
          ]
        },
        {
          "id": 5,
          "properties": [
            {
              "name": "collides",
              "type": "bool",
              "value": true
            }
          ]
        },
        {
          "id": 6,
          "properties": [
            {
              "name": "collides",
              "type": "bool",
              "value": true
            }
          ]
        },
        {
          "id": 7,
          "properties": [
            {
              "name": "collides",
              "type": "bool",
              "value": true
            }
          ]
        }
      ]
    }
  ],
  "layers": [
    {
      "data": [
        5,
        5,
        5,
        5,
        5,
        5,
        5,
        5,
        5,
        5,
        5,
        5,
        5,
        5,
        5,
        5,
        5,
        5,
        5,
        5,
        5,
        5,
        5,
        5,
        5,
        5,
        5,
        5,
        5,
        5,
        5,
        5,
        5,
        2,
        2,
        2,
        2,
        2,
        2,
        2,
        2,
        2,
        2,
        2,
        2,
        2,
        2,
        2,
        2,
        2,
        2,
        2,
        2,
        2,
        2,
        2,
        2,
        2,
        2,
        2,
        2,
        2,
        2,
        5,
        5,
        2,
        2,
        2,
        2,
        2,
        2,
        2,
        2,
        2,
        2,
        2,
        2,
        2,
        2,
        2,
        2,
        2,
        2,
        2,
        2,
        2,
        2,
        2,
        2,
        2,
        2,
        2,
        2,
        2,
        2,
        5,
        5,
        2,
        2,
        2,
        2,
        2,
        7,
        7,
        2,
        2,
        2,
        2,
        2,
        2,
        2,
        2,
        2,
        2,
        2,
        2,
        2,
        2,
        2,
        8,
        8,
        8,
        2,
        2,
        2,
        2,
        2,
        5,
        5,
        2,
        2,
        2,
        2,
        2,
        7,
        7,
        2,
        2,
        2,
        2,
        2,
        2,
        2,
        2,
        2,
        2,
        2,
        2,
        2,
        2,
        2,
        8,
        8,
        8,
        2,
        2,
        2,
        2,
        2,
        5,
        5,
        2,
        2,
        2,
        2,
        2,
        2,
        2,
        2,
        2,
        2,
        2,
        2,
        2,
        2,
        2,
        2,
        2,
        2,
        2,
        2,
        2,
        2,
        2,
        2,
        2,
        2,
        2,
        2,
        2,
        2,
        5,
        5,
        2,
        2,
        2,
        2,
        2,
        2,
        2,
        2,
        2,
        2,
        2,
        2,
        2,
        2,
        2,
        2,
        2,
        2,
        2,
        2,
        2,
        2,
        2,
        2,
        2,
        2,
        2,
        2,
        2,
        2,
        5,
        5,
        2,
        2,
        2,
        2,
        2,
        2,
        2,
        2,
        2,
        2,
        2,
        2,
        2,
        2,
        2,
        2,
        2,
        2,
        2,
        2,
        2,
        2,
        2,
        2,
        2,
        2,
        2,
        2,
        2,
        2,
        5,
        5,
        2,
        2,
        2,
        2,
        2,
        2,
        2,
        2,
        2,
        2,
        2,
        2,
        2,
        2,
        2,
        2,
        2,
        2,
        2,
        2,
        2,
        2,
        2,
        2,
        2,
        2,
        2,
        2,
        2,
        2,
        5,
        5,
        13,
        2,
        2,
        2,
        2,
        2,
        2,
        2,
        2,
        2,
        2,
        2,
        2,
        2,
        2,
        2,
        2,
        2,
        2,
        2,
        2,
        2,
        2,
        2,
        2,
        2,
        2,
        2,
        2,
        13,
        5,
        5,
        2,
        2,
        2,
        2,
        2,
        2,
        2,
        2,
        2,
        2,
        2,
        2,
        6,
        6,
        2,
        2,
        2,
        6,
        6,
        2,
        2,
        2,
        2,
        2,
        2,
        2,
        2,
        2,
        2,
        2,
        5,
        5,
        2,
        2,
        2,
        2,
        2,
        2,
        2,
        2,
        6,
        6,
        2,
        2,
        12,
        2,
        2,
        2,
        2,
        12,
        2,
        2,
        2,
        6,
        6,
        2,
        2,
        2,
        2,
        2,
        2,
        2,
        5,
        5,
        2,
        2,
        2,
        2,
        6,
        6,
        2,
        2,
        12,
        2,
        2,
        2,
        2,
        2,
        2,
        2,
        2,
        2,
        2,
        2,
        2,
        12,
        2,
        2,
        2,
        6,
        6,
        2,
        10,
        2,
        5,
        5,
        2,
        2,
        2,
        2,
        12,
        2,
        2,
        2,
        2,
        2,
        2,
        2,
        2,
        2,
        2,
        2,
        2,
        2,
        2,
        2,
        2,
        2,
        2,
        2,
        2,
        12,
        2,
        2,
        2,
        2,
        5,
        5,
        2,
        2,
        2,
        2,
        2,
        2,
        2,
        2,
        2,
        2,
        2,
        2,
        2,
        2,
        11,
        2,
        2,
        2,
        2,
        2,
        2,
        2,
        2,
        2,
        2,
        2,
        2,
        2,
        2,
        2,
        5,
        5,
        2,
        2,
        2,
        2,
        2,
        2,
        2,
        2,
        2,
        2,
        2,
        2,
        2,
        9,
        9,
        9,
        9,
        2,
        2,
        2,
        2,
        2,
        2,
        2,
        2,
        2,
        2,
        2,
        2,
        2,
        5,
        5,
        2,
        2,
        2,
        2,
        2,
        2,
        2,
        2,
        2,
        2,
        2,
        2,
        2,
        9,
        9,
        9,
        9,
        2,
        2,
        2,
        2,
        2,
        2,
        2,
        2,
        2,
        2,
        2,
        2,
        2,
        5,
        5,
        5,
        5,
        5,
        5,
        5,
        5,
        5,
        5,
        5,
        5,
        5,
        5,
        5,
        9,
        9,
        9,
        9,
        5,
        5,
        5,
        5,
        5,
        5,
        5,
        5,
        5,
        5,
        5,
        5,
        5,
        5
      ],
      "height": 18,
      "id": 1,
      "name": "floor",
      "opacity": 1,
      "type": "tilelayer",
      "visible": true,
      "width": 32,
      "x": 0,
      "y": 0
    },
    {
      "data": [
        0,
        0,
        0,
        0,
        0,
        0,
        0,
        0,
        0,
        0,
        0,
        0,
        0,
        0,
        0,
        0,
        0,
        0,
        0,
        0,
        0,
        0,
        0,
        0,
        0,
        0,
        0,
        0,
        0,
        0,
        0,
        0,
        0,
        0,
        0,
        0,
        0,
        0,
        0,
        0,
        0,
        0,
        0,
        0,
        0,
        0,
        0,
        0,
        0,
        0,
        0,
        0,
        0,
        0,
        0,
        0,
        0,
        0,
        0,
        0,
        0,
        0,
        0,
        0,
        0,
        0,
        0,
        0,
        0,
        0,
        0,
        0,
        0,
        0,
        0,
        0,
        0,
        0,
        0,
        0,
        0,
        0,
        0,
        0,
        0,
        0,
        0,
        0,
        0,
        0,
        0,
        0,
        0,
        0,
        0,
        0,
        0,
        0,
        0,
        0,
        0,
        0,
        0,
        0,
        0,
        0,
        0,
        0,
        0,
        0,
        0,
        0,
        0,
        0,
        0,
        0,
        0,
        0,
        0,
        0,
        0,
        0,
        0,
        0,
        0,
        0,
        0,
        0,
        0,
        0,
        0,
        0,
        0,
        0,
        0,
        0,
        0,
        0,
        0,
        0,
        0,
        0,
        0,
        0,
        0,
        0,
        0,
        0,
        0,
        0,
        0,
        0,
        0,
        0,
        0,
        0,
        0,
        0,
        0,
        0,
        0,
        0,
        0,
        0,
        0,
        0,
        0,
        0,
        0,
        0,
        0,
        0,
        0,
        0,
        0,
        0,
        0,
        0,
        0,
        0,
        0,
        0,
        0,
        0,
        0,
        0,
        0,
        0,
        0,
        0,
        0,
        0,
        0,
        0,
        0,
        0,
        0,
        0,
        0,
        0,
        0,
        0,
        0,
        0,
        0,
        0,
        0,
        0,
        0,
        0,
        0,
        0,
        0,
        0,
        0,
        0,
        0,
        0,
        0,
        0,
        0,
        0,
        0,
        0,
        0,
        0,
        0,
        0,
        0,
        0,
        0,
        0,
        0,
        0,
        0,
        0,
        0,
        0,
        0,
        0,
        0,
        0,
        0,
        0,
        0,
        0,
        0,
        0,
        0,
        0,
        0,
        0,
        0,
        0,
        0,
        0,
        0,
        0,
        0,
        0,
        0,
        0,
        0,
        0,
        0,
        0,
        0,
        0,
        0,
        0,
        0,
        0,
        0,
        0,
        0,
        0,
        0,
        0,
        0,
        0,
        0,
        0,
        0,
        0,
        0,
        0,
        0,
        0,
        0,
        0,
        0,
        0,
        0,
        0,
        0,
        0,
        0,
        0,
        0,
        0,
        0,
        0,
        0,
        0,
        0,
        0,
        0,
        0,
        0,
        0,
        0,
        0,
        0,
        0,
        0,
        0,
        0,
        0,
        0,
        0,
        0,
        0,
        0,
        0,
        0,
        0,
        0,
        0,
        0,
        0,
        0,
        0,
        0,
        0,
        0,
        0,
        0,
        0,
        0,
        0,
        0,
        0,
        0,
        0,
        0,
        0,
        0,
        0,
        0,
        0,
        0,
        0,
        0,
        0,
        0,
        0,
        0,
        0,
        0,
        0,
        0,
        0,
        0,
        0,
        0,
        0,
        0,
        0,
        0,
        0,
        0,
        0,
        0,
        0,
        0,
        0,
        0,
        0,
        0,
        0,
        0,
        0,
        0,
        0,
        0,
        0,
        0,
        0,
        0,
        0,
        0,
        0,
        0,
        0,
        0,
        0,
        0,
        0,
        0,
        0,
        0,
        0,
        0,
        0,
        0,
        0,
        0,
        0,
        0,
        0,
        0,
        0,
        0,
        0,
        0,
        0,
        0,
        0,
        0,
        0,
        0,
        0,
        0,
        0,
        0,
        0,
        0,
        0,
        0,
        0,
        0,
        0,
        0,
        0,
        0,
        0,
        0,
        0,
        0,
        0,
        0,
        0,
        0,
        0,
        0,
        0,
        0,
        0,
        0,
        0,
        0,
        0,
        0,
        0,
        0,
        0,
        0,
        0,
        0,
        0,
        0,
        0,
        0,
        2,
        0,
        0,
        0,
        0,
        0,
        0,
        0,
        0,
        0,
        0,
        0,
        0,
        0,
        0,
        0,
        0,
        0,
        0,
        0,
        0,
        0,
        0,
        0,
        0,
        0,
        0,
        0,
        0,
        0,
        0,
        0,
        0,
        0,
        0,
        0,
        0,
        0,
        0,
        0,
        0,
        0,
        0,
        0,
        0,
        0,
        0,
        0,
        0,
        0,
        0,
        0,
        0,
        0,
        0,
        0,
        0,
        0,
        0,
        0,
        0,
        0,
        0,
        0,
        0,
        0,
        0,
        0,
        0,
        0,
        0,
        0,
        0,
        0,
        0,
        0,
        0,
        0,
        0,
        0,
        0,
        0,
        0,
        0,
        0,
        0,
        0,
        0,
        0,
        0,
        0,
        0,
        0,
        0,
        0,
        0,
        0,
        0,
        0,
        0,
        0,
        0,
        0,
        0,
        0,
        0,
        0,
        0,
        0,
        0,
        0,
        0,
        0
      ],
      "height": 18,
      "id": 2,
      "name": "start",
      "opacity": 1,
      "type": "tilelayer",
      "visible": false,
      "width": 32,
      "x": 0,
      "y": 0,
      "properties": [
        {
          "name": "startLayer",
          "type": "bool",
          "value": true
        }
      ]
    },
    {
      "draworder": "topdown",
      "id": 3,
      "name": "floorLayer",
      "objects": [],
      "opacity": 1,
      "type": "objectgroup",
      "visible": true,
      "x": 0,
      "y": 0
    },
    {
      "draworder": "topdown",
      "id": 4,
      "name": "areas",
      "objects": [
        {
          "id": 20,
          "name": "desk-yk",
          "type": "area",
          "class": "area",
          "x": 144,
          "y": 400,
          "width": 64,
          "height": 64,
          "properties": [
            {
              "name": "deskLabel",
              "type": "string",
              "value": "Yu-kai"
            }
          ]
        },
        {
          "id": 21,
          "name": "desk-jun",
          "type": "area",
          "class": "area",
          "x": 272,
          "y": 368,
          "width": 64,
          "height": 64,
          "properties": [
            {
              "name": "deskLabel",
              "type": "string",
              "value": "Jun"
            }
          ]
        },
        {
          "id": 22,
          "name": "desk-jason",
          "type": "area",
          "class": "area",
          "x": 400,
          "y": 336,
          "width": 64,
          "height": 64,
          "properties": [
            {
              "name": "deskLabel",
              "type": "string",
              "value": "Jason"
            }
          ]
        },
        {
          "id": 23,
          "name": "desk-simon",
          "type": "area",
          "class": "area",
          "x": 560,
          "y": 336,
          "width": 64,
          "height": 64,
          "properties": [
            {
              "name": "deskLabel",
              "type": "string",
              "value": "Simon"
            }
          ]
        },
        {
          "id": 24,
          "name": "desk-guest-a",
          "type": "area",
          "class": "area",
          "x": 688,
          "y": 368,
          "width": 64,
          "height": 64,
          "properties": [
            {
              "name": "deskLabel",
              "type": "string",
              "value": "Desk 5"
            }
          ]
        },
        {
          "id": 25,
          "name": "desk-guest-b",
          "type": "area",
          "class": "area",
          "x": 816,
          "y": 400,
          "width": 64,
          "height": 64,
          "properties": [
            {
              "name": "deskLabel",
              "type": "string",
              "value": "Desk 6"
            }
          ]
        },
        {
          "id": 26,
          "name": "cafe",
          "type": "area",
          "class": "area",
          "x": 128,
          "y": 64,
          "width": 224,
          "height": 160,
          "properties": []
        },
        {
          "id": 27,
          "name": "meeting",
          "type": "area",
          "class": "area",
          "x": 672,
          "y": 64,
          "width": 224,
          "height": 160,
          "properties": []
        },
        {
          "id": 28,
          "name": "door",
          "type": "area",
          "class": "area",
          "x": 448,
          "y": 480,
          "width": 128,
          "height": 96,
          "properties": []
        },
        {
          "id": 29,
          "name": "board-l",
          "type": "area",
          "class": "area",
          "x": 64,
          "y": 256,
          "width": 64,
          "height": 64,
          "properties": []
        },
        {
          "id": 30,
          "name": "board-r",
          "type": "area",
          "class": "area",
          "x": 896,
          "y": 256,
          "width": 64,
          "height": 64,
          "properties": []
        }
      ],
      "opacity": 1,
      "type": "objectgroup",
      "visible": true,
      "x": 0,
      "y": 0
    },
    {
      "draworder": "topdown",
      "id": 5,
      "name": "variables",
      "objects": [
        {
          "id": 31,
          "name": "gateA",
          "type": "variable",
          "class": "variable",
          "x": 0,
          "y": 0,
          "width": 32,
          "height": 32,
          "properties": [
            {
              "name": "default",
              "type": "string",
              "value": "[]"
            },
            {
              "name": "persist",
              "type": "bool",
              "value": true
            },
            {
              "name": "public",
              "type": "bool",
              "value": true
            }
          ]
        },
        {
          "id": 32,
          "name": "boardNotes",
          "type": "variable",
          "class": "variable",
          "x": 32,
          "y": 0,
          "width": 32,
          "height": 32,
          "properties": [
            {
              "name": "default",
              "type": "string",
              "value": "[]"
            },
            {
              "name": "persist",
              "type": "bool",
              "value": true
            },
            {
              "name": "public",
              "type": "bool",
              "value": true
            }
          ]
        }
      ],
      "opacity": 1,
      "type": "objectgroup",
      "visible": false,
      "x": 0,
      "y": 0
    }
  ]
}
